Newaita-dark/actions/16/draw-triangle.svg

<svg height="16" viewBox="0 0 16 16" width="16" xmlns="http://www.w3.org/2000/svg"><path d="m2.636719 2.113281c-.359375.003907-.648438.296875-.648438.65625v10.585938c0 .363281.292969.660156.65625.660156h10.585938c.265625 0 .507812-.164063.609375-.410156.101562-.242188.042968-.527344-.144532-.714844l-10.582031-10.585937c-.128906-.125-.300781-.195313-.476562-.191407zm.667969 2.246094 8.335937 8.335937h-8.335937zm0 0" fill="#e0e0e0"/></svg>

<svg xmlns="http://www.w3.org/2000/svg" xmlns:xlink="http://www.w3.org/1999/xlink" width="16px" height="16px" viewBox="0 0 16 16" version="1.1">
<g id="surface1">
     <defs>
  <style id="current-color-scheme" type="text/css">
   .ColorScheme-Text { color:#eeeeee; } .ColorScheme-Highlight { color:#424242; }
  </style>
 </defs>
<path style="fill:currentColor" class="ColorScheme-Text" d="M 2.636719 2.113281 C 2.277344 2.117188 1.988281 2.410156 1.988281 2.769531 L 1.988281 13.355469 C 1.988281 13.71875 2.28125 14.015625 2.644531 14.015625 L 13.230469 14.015625 C 13.496094 14.015625 13.738281 13.851562 13.839844 13.605469 C 13.941406 13.363281 13.882812 13.078125 13.695312 12.890625 L 3.113281 2.304688 C 2.984375 2.179688 2.8125 2.109375 2.636719 2.113281 Z M 3.304688 4.359375 L 11.640625 12.695312 L 3.304688 12.695312 Z M 3.304688 4.359375 "/>
</g>
</svg>
